packages/kaspersky-hexa-ui-icons/src/iconsSVGs/16/Cisco.svg

<svg width="16" height="16" viewBox="0 0 16 16" fill="none" xmlns="http://www.w3.org/2000/svg">
<path d="M4.52339 4.13034C4.52339 3.93877 4.36694 3.7832 4.17514 3.7832C3.98313 3.7832 3.82667 3.93877 3.82667 4.13034V7.8224C3.82667 8.01509 3.98313 8.17065 4.17514 8.17065C4.36694 8.17065 4.52339 8.01509 4.52339 7.8224V4.13034Z" fill="black"/>
<path d="M2.2618 5.09363C2.45359 5.09363 2.61005 5.24942 2.61005 5.44099V7.1289C2.61005 7.32159 2.45359 7.47693 2.2618 7.47693C2.06979 7.47693 1.91333 7.32159 1.91333 7.1289V5.44099C1.91333 5.24942 2.06979 5.09363 2.2618 5.09363Z" fill="black"/>
<path d="M0.696721 6.39896C0.696721 6.20739 0.540264 6.05204 0.348471 6.05204C0.156679 6.05204 0 6.20739 0 6.39896V7.12879C0 7.32147 0.156679 7.47704 0.348471 7.47704C0.540264 7.47704 0.696721 7.32147 0.696721 7.12879V6.39896Z" fill="black"/>
<path d="M7.33955 9.93415C7.58223 9.93415 7.87759 10.0157 7.88803 10.019V9.42544C7.86714 9.41989 7.54578 9.33699 7.2042 9.33699C6.55749 9.33699 6.16812 9.68613 6.16812 10.2062C6.16812 10.6664 6.49392 10.896 6.88462 11.0196C6.90197 11.0252 6.92252 11.0318 6.94365 11.0386C6.97559 11.0488 7.00887 11.0595 7.03441 11.068C7.20842 11.1227 7.34732 11.204 7.34732 11.3449C7.34732 11.5025 7.18687 11.6045 6.83773 11.6045C6.56155 11.6045 6.2953 11.5332 6.20015 11.5077C6.18972 11.5049 6.18134 11.5027 6.17523 11.5012V12.141C6.20968 12.1483 6.55926 12.217 6.9324 12.217C7.46933 12.217 8.0836 11.9823 8.0836 11.2838C8.0836 10.9451 7.87603 10.6333 7.42066 10.4884L7.22709 10.4269L7.21552 10.4232C7.09851 10.3864 6.90551 10.3258 6.90551 10.1619C6.90551 10.0284 7.05841 9.93415 7.33955 9.93415Z" fill="black"/>
<path fill-rule="evenodd" clip-rule="evenodd" d="M14.561 10.7769C14.561 11.5723 13.9469 12.2168 13.0918 12.2168C12.2366 12.2168 11.6234 11.5723 11.6234 10.7769C11.6234 9.98284 12.2366 9.33768 13.0918 9.33768C13.9469 9.33768 14.561 9.98284 14.561 10.7769ZM13.0918 10.0457C12.6755 10.0457 12.3664 10.3733 12.3664 10.7769C12.3664 11.1814 12.6755 11.5087 13.0918 11.5087C13.5076 11.5087 13.8176 11.1814 13.8176 10.7769C13.8176 10.3733 13.5076 10.0457 13.0918 10.0457Z" fill="black"/>
<path d="M3.55427 10.1801L3.56108 10.1838V9.43748L3.54703 9.43325C3.46501 9.40843 3.23134 9.3377 2.92125 9.3377C2.06741 9.3377 1.44069 9.94663 1.44069 10.7769C1.44069 11.6728 2.13252 12.2168 2.92125 12.2168C3.21649 12.2168 3.44603 12.1509 3.54445 12.1227L3.56108 12.1179V11.3716L3.55897 11.3728C3.52143 11.3936 3.29476 11.5192 2.9717 11.5192C2.50411 11.5192 2.20275 11.1901 2.20275 10.7769C2.20275 10.3511 2.51722 10.0353 2.9717 10.0353C3.28799 10.0353 3.50655 10.1542 3.55427 10.1801Z" fill="black"/>
<path d="M10.8846 10.1838L10.8778 10.1801C10.83 10.1542 10.6115 10.0353 10.2952 10.0353C9.84072 10.0353 9.52625 10.3511 9.52625 10.7769C9.52625 11.1901 9.82761 11.5192 10.2952 11.5192C10.6183 11.5192 10.8449 11.3936 10.8825 11.3728L10.8846 11.3716V12.1179L10.868 12.1227C10.7695 12.1509 10.54 12.2168 10.2447 12.2168C9.45602 12.2168 8.76419 11.6728 8.76419 10.7769C8.76419 9.94663 9.3909 9.3377 10.2447 9.3377C10.5548 9.3377 10.7885 9.40843 10.8705 9.43325L10.8846 9.43748V10.1838Z" fill="black"/>
<path d="M5.2273 9.38704H4.52569V12.1675H5.2273V9.38704Z" fill="black"/>
<path d="M6.08849 5.09363C6.28029 5.09363 6.43674 5.24942 6.43674 5.44099V7.1289C6.43674 7.32159 6.28029 7.47693 6.08849 7.47693C5.89648 7.47693 5.74002 7.32159 5.74002 7.1289V5.44099C5.74002 5.24942 5.89648 5.09363 6.08849 5.09363Z" fill="black"/>
<path d="M8.20984 6.12184C8.15186 6.07802 8.07973 6.05204 8.00166 6.05204L7.99999 6.05205C7.80845 6.05235 7.65209 6.20758 7.65209 6.39896V7.1288C7.65209 7.32148 7.80876 7.47705 8.00056 7.47705C8.07818 7.47705 8.15001 7.45156 8.20803 7.40846C8.29336 7.34505 8.34881 7.2435 8.34881 7.1288V6.39896C8.34881 6.28573 8.29415 6.18516 8.20984 6.12184Z" fill="black"/>
<path d="M10.2621 5.441C10.2621 5.24943 10.1057 5.09364 9.91389 5.09364C9.72187 5.09364 9.56542 5.24943 9.56542 5.441V7.12891C9.56542 7.32159 9.72187 7.47693 9.91389 7.47693C10.1057 7.47693 10.2621 7.32159 10.2621 7.12891V5.441Z" fill="black"/>
<path d="M11.8272 3.78321C12.019 3.78321 12.1755 3.93877 12.1755 4.13035V7.82241C12.1755 8.01509 12.019 8.17066 11.8272 8.17066C11.6352 8.17066 11.4788 8.01509 11.4788 7.82241V4.13035C11.4788 3.93877 11.6352 3.78321 11.8272 3.78321Z" fill="black"/>
<path d="M14.0888 5.441C14.0888 5.24943 13.9324 5.09364 13.7406 5.09364C13.5486 5.09364 13.3921 5.24943 13.3921 5.441V7.12891C13.3921 7.32159 13.5486 7.47693 13.7406 7.47693C13.9324 7.47693 14.0888 7.32159 14.0888 7.12891V5.441Z" fill="black"/>
<path d="M15.6538 6.05205C15.8447 6.05205 16 6.20739 16 6.39896V7.1288C16 7.32148 15.8447 7.47705 15.6538 7.47705C15.462 7.47705 15.3055 7.32148 15.3055 7.1288V6.39896C15.3055 6.20739 15.462 6.05205 15.6538 6.05205Z" fill="black"/>
</svg>

<svg xmlns="http://www.w3.org/2000/svg" width="16" height="16" fill="none" viewBox="0 0 16 16"><path fill="#000" d="M4.523 4.13a.348.348 0 0 0-.348-.347.348.348 0 0 0-.348.347v3.692a.348.348 0 0 0 .697 0zm-2.261.964a.348.348 0 0 1 .348.347v1.688a.348.348 0 0 1-.348.348.348.348 0 0 1-.348-.348V5.441a.348.348 0 0 1 .349-.347M.697 6.399a.348.348 0 0 0-.348-.347c-.192 0-.349.155-.349.347v.73a.348.348 0 0 0 .697 0zM7.34 9.934c.243 0 .538.082.548.085v-.594c-.021-.005-.342-.088-.684-.088-.647 0-1.036.349-1.036.869 0 .46.326.69.716.813l.059.019c.032.01.065.021.091.029.174.055.313.136.313.277 0 .158-.16.26-.51.26-.276 0-.542-.071-.638-.097l-.025-.006v.64c.035.007.384.076.757.076.537 0 1.151-.235 1.151-.933 0-.339-.208-.65-.663-.795l-.193-.061-.012-.004c-.117-.037-.31-.097-.31-.261 0-.133.153-.228.434-.228"/><path fill="#000" fill-rule="evenodd" d="M14.561 10.7769c0 .7954-.6141 1.4399-1.4692 1.4399s-1.4684-.6445-1.4684-1.4399c0-.794.6132-1.4392 1.4684-1.4392s1.4692.6451 1.4692 1.4392m-1.4692-.7312c-.4163 0-.7254.3276-.7254.7312 0 .4045.3091.7318.7254.7318.4158 0 .7258-.3273.7258-.7318 0-.4036-.31-.7312-.7258-.7312" clip-rule="evenodd"/><path fill="#000" d="m3.554 10.18.007.004v-.746l-.014-.004a2.12 2.12 0 0 0-.626-.095c-.854 0-1.481.609-1.481 1.439 0 .896.692 1.44 1.481 1.44.295 0 .525-.066.623-.094l.017-.005v-.746l-.002.001c-.038.021-.264.146-.587.146-.468 0-.769-.329-.769-.742 0-.426.315-.742.769-.742.316 0 .535.119.583.145m7.33.003-.007-.004c-.048-.026-.266-.145-.583-.145-.454 0-.769.316-.769.742 0 .413.301.742.769.742.323 0 .55-.126.587-.146l.002-.001v.746l-.017.005c-.098.028-.328.094-.623.094-.789 0-1.48-.544-1.48-1.44 0-.83.627-1.439 1.481-1.439.31 0 .544.071.626.096l.014.004zm-5.658-.797h-.702v2.781h.702zm.862-4.293a.348.348 0 0 1 .348.347v1.688a.348.348 0 0 1-.348.348.348.348 0 0 1-.348-.348V5.441a.348.348 0 0 1 .349-.347m2.12 1.028a.344.344 0 0 0-.208-.07H8a.348.348 0 0 0-.348.347v.73a.349.349 0 0 0 .556.28.348.348 0 0 0 .141-.28v-.73a.346.346 0 0 0-.139-.277m2.052-.681a.348.348 0 0 0-.697 0v1.688c0 .193.157.348.349.348a.348.348 0 0 0 .348-.348zm1.565-1.658a.348.348 0 0 1 .348.347v3.692a.348.348 0 0 1-.697 0V4.13a.348.348 0 0 1 .348-.347m2.263 1.658a.348.348 0 0 0-.697 0v1.688c0 .193.157.348.349.348a.348.348 0 0 0 .348-.348zm1.565.611a.347.347 0 0 1 .346.347v.73a.347.347 0 0 1-.346.348.348.348 0 0 1-.348-.348v-.73a.348.348 0 0 1 .348-.347"/></svg>
